X: 1593
T: Jim Lowe's Set Tune
B: australian traditional tunes wiki
M:6/8
L:1/8
R: Jig
Q: 3/8=100
K:D
V:1 
|:f2e dcB|AAF A2A|GzB ddd|e2c dz2:|
e2fg2a|b2a af2|aba fed|e3z3|f2e dcB|AAF AzA|GzB d2d|edcd3||
% abcbook-tune_id 6342d53ada266cc7f597473a


% abcbook-boost 0
% abcbook-tablature 
% abcbook-transpose 
% abcbook-lastupdated 1665324372900
% abcbook-soundfonts 
% abcbook-repeats 1
% NFF Book 2016

